X: 5
T:Countrodanso n1
R:---
O:Val Varaita, Italie
M:2/4
L:1/8
K:C
ce/2f/2|:gg gf|ed ef/2e/2|dc dd|ec ce/2f/2|gg gf|ed ef/2e/2|dc de| [1 c2 ce/2f/2 :| [2 c2
cd|:e>e ee|fe dc|d>d dd/2e/2|dc cd|e>e ee|fe dc|d>f ed| [1 c2 cd:| [2 c2 c2 |:
f>e dc|A2A2|d>c BA|B/2A/2G G2|c>B cd|e2 de|gf ed| [1 c2 c2:| [2 c2 ||fine g2 c'2|c'2
%%footer $D   Galouvielle-MBe 2006 \n--- (Val Varaita, Italie)
